!!!OTL: Drummer Boy
!!!ONM: 70.
**kern
*clefG2
*k[b-e-a-]
*E-:
*M6/8
*MM92
{8a-
=1
4g
8b-
4g
8e-
=2
(8e-
8c)
8e-
4B-}
{8B-
=3
4e-
8e-
(8e-
8f)
8g
=4
8b-
8a-
8g
4f}
{8a-
=5
4g
8a-
4f
8g
=6
(8e-
8c)
8e-
4B-}
{8B-
=7
4e-
8cc
4b-
8e-
=8
4g
8f
4e-}
==
*-
!!!CNT: Folksongs of Maritime Canada
!!!MRD: 1928///-1932///
!!!OCL: Helen Creighton
!!!YOR: Songs and Ballads from Nova Scotia
!!!PPR: J.M. Dent & Sons, Limited
!!!PPP: Toronto, Canada
!!!PDT: 1932///
!!!reprint: Dover Publications, 1992: ISBN 0-486-21703-5
!!!ENC1: Craig Stuart Sapp (music and bibliographic data)                       
!!!ENC2: Marcus Pearce (phrase markings and key designations)                   
!!!ENC3: Darrell Conklin (phrase markings and key designations)   
!!!END: 2002/04/10/
!!!EEV: 2004/06/05
!!!MPN: Mrs. William McNab
!!!PPG: 145
!!!EFL: 71/152
!!!ARE: Canada; Nova Scotia
!!!verses: 6
!!!VTS: 3366597433
